icons/src/svg/clock.svg

<svg width="32" height="32" viewBox="0 0 32 32" fill="none" xmlns="http://www.w3.org/2000/svg">
<path d="M17 7C17 6.44772 16.5523 6 16 6C15.4477 6 15 6.44772 15 7V15C15 16.1046 15.8954 17 17 17H23C23.5523 17 24 16.5523 24 16C24 15.4477 23.5523 15 23 15H17V7Z" fill="#0D0F13"/>
<path fill-rule="evenodd" clip-rule="evenodd" d="M16 2C8.26801 2 2 8.26802 2 16C2 23.732 8.26801 30 16 30C23.732 30 30 23.732 30 16C30 8.26801 23.732 2 16 2ZM4 16C4 9.37258 9.37258 4 16 4C22.6274 4 28 9.37259 28 16C28 22.6274 22.6274 28 16 28C9.37258 28 4 22.6274 4 16Z" fill="#0D0F13"/>
</svg>

<?xml version="1.0" encoding="utf-8"?>
<!-- Generator: Adobe Illustrator 26.0.1, SVG Export Plug-In . SVG Version: 6.00 Build 0)  -->
<svg version="1.1" id="Layer_1" xmlns="http://www.w3.org/2000/svg" xmlns:xlink="http://www.w3.org/1999/xlink" x="0px" y="0px"
	 viewBox="0 0 32 32" style="enable-background:new 0 0 32 32;" xml:space="preserve">
<style type="text/css">
	.st0{fill:#0D0F13;}
</style>
<path class="st0" d="M17,7c0-0.6-0.4-1-1-1c-0.6,0-1,0.4-1,1v8c0,1.1,0.9,2,2,2h6c0.6,0,1-0.4,1-1c0-0.6-0.4-1-1-1h-6V7z M16,2
	C8.3,2,2,8.3,2,16c0,7.7,6.3,14,14,14c7.7,0,14-6.3,14-14C30,8.3,23.7,2,16,2z M4,16C4,9.4,9.4,4,16,4c6.6,0,12,5.4,12,12
	c0,6.6-5.4,12-12,12C9.4,28,4,22.6,4,16z"/>
</svg>
